icons/inbox-arrow-down.svg

<svg xmlns="http://www.w3.org/2000/svg" width="24" height="24" viewBox="0 0 24 24">
  <path d="M6,16 L6.11662113,16.0067277 C6.61395981,16.0644928 7,16.4871642 7,17 C7,18.5976809 8.24891996,19.9036609 9.82372721,19.9949073 L10,20 L14,20 L14.1762728,19.9949073 C15.6927538,19.9070404 16.9070404,18.6927538 16.9949073,17.1762728 L17,17 L17.0067277,16.8833789 C17.0600494,16.424297 17.424297,16.0600494 17.8833789,16.0067277 L18,16 L22,16 L22,20 C22,21.1045695 21.1045695,22 20,22 L4,22 C2.8954305,22 2,21.1045695 2,20 L2,16 L6,16 Z M20,2 C21.1045695,2 22,2.8954305 22,4 L22,14 L18,14 L17.8237272,14.0050927 C16.24892,14.0963391 15,15.4023191 15,17 C15,17.5128358 14.6139598,17.9355072 14.1166211,17.9932723 L14,18 L10,18 L9.88337887,17.9932723 C9.42429701,17.9399506 9.06004937,17.575703 9.00672773,17.1166211 L9,17 L8.99490731,16.8237272 C8.90704038,15.3072462 7.69275384,14.0929596 6.17627279,14.0050927 L6,14 L2,14 L2,4 C2,2.8954305 2.8954305,2 4,2 L20,2 Z M12,5 C11.4871642,5 11.0644928,5.38604019 11.0067277,5.88337887 L11,6 L11,9.585 L9.70710678,8.29289322 C9.31658249,7.90236893 8.68341751,7.90236893 8.29289322,8.29289322 C7.93240926,8.65337718 7.90467972,9.22060824 8.20970461,9.61289944 L8.29289322,9.70710678 L11.2928932,12.7071068 L11.347434,12.757792 L11.347434,12.757792 L11.359,12.767 L11.374551,12.7803112 L11.378,12.783 L11.3832499,12.787214 L11.38,12.784 L11.4046934,12.8036654 L11.4046934,12.8036654 C11.4288693,12.8215099 11.453725,12.8382813 11.4793398,12.8539326 L11.5159379,12.8753288 L11.5159379,12.8753288 C11.5357061,12.8862061 11.5561086,12.8966234 11.5769009,12.9063462 L11.628664,12.9287745 L11.628664,12.9287745 C11.6484208,12.9366843 11.6682023,12.9438775 11.6882636,12.9504533 C11.7031487,12.9552713 11.7185367,12.9599023 11.734007,12.9641549 C11.7555635,12.9701664 11.7772539,12.9753602 11.7992059,12.9798348 C11.8166247,12.9832978 11.834051,12.9863719 11.8515331,12.9889822 L11.909968,12.996002 L11.909968,12.996002 C11.9208131,12.99693 11.9308872,12.9976744 11.9409686,12.9982669 L11.980824,12.9998198 C11.9872016,12.9999398 11.9935938,13 12,13 L12.019,12.999 L12.045,12.998 L12.08,12.996 L12.1489612,12.9889807 L12.1489612,12.9889807 C12.165949,12.9863719 12.1833753,12.9832978 12.2007258,12.9797599 C12.2227461,12.9753602 12.2444365,12.9701664 12.2658396,12.964279 C12.2814633,12.9599023 12.2968513,12.9552713 12.3121425,12.9502619 C12.3317977,12.9438775 12.3515792,12.9366843 12.3710585,12.928896 L12.4232215,12.9063266 L12.4232215,12.9063266 C12.4438914,12.8966234 12.4642939,12.8862061 12.484277,12.8751242 C12.4963944,12.8685012 12.5086131,12.8613931 12.5207088,12.8540045 C12.546275,12.8382813 12.5711307,12.8215099 12.5951593,12.8036865 C12.6012086,12.7992821 12.6070733,12.7948255 12.6128994,12.7902954 C12.6196628,12.7849289 12.6225624,12.7826279 12.625449,12.7803112 L12.7071068,12.7071068 L15.7071068,9.70710678 C16.0976311,9.31658249 16.0976311,8.68341751 15.7071068,8.29289322 C15.3466228,7.93240926 14.7793918,7.90467972 14.3871006,8.20970461 L14.2928932,8.29289322 L13,9.585 L13,6 C13,5.44771525 12.5522847,5 12,5 Z"/>
</svg>

<svg xmlns="http://www.w3.org/2000/svg" viewBox="0 0 24 24">
  <path d="M6 16h.12A1 1 0 0 1 7 17a3 3 0 0 0 2.82 3h4.36a3 3 0 0 0 2.81-2.82L17 17v-.12a1 1 0 0 1 .88-.87L18 16h4v4a2 2 0 0 1-2 2H4a2 2 0 0 1-2-2v-4h4zM20 2a2 2 0 0 1 2 2v10h-4.18A3 3 0 0 0 15 17a1 1 0 0 1-.88 1H9.88a1 1 0 0 1-.87-.88L9 17v-.18a3 3 0 0 0-2.82-2.81L6 14H2V4c0-1.1.9-2 2-2h16zm-8 3a1 1 0 0 0-1 .88V9.6L9.7 8.3a1 1 0 0 0-1.49 1.32l.08.1 3 3 .06.05.02.02h.01l.02.02.08.05.04.03.06.03.05.02a.99.99 0 0 0 .22.06h.09l.04.01h.1l.07-.01a1.08 1.08 0 0 0 .22-.06l.05-.02a1.02 1.02 0 0 0 .2-.13l.09-.07 3-3a1 1 0 0 0-1.32-1.5l-.1.08L13 9.6V6a1 1 0 0 0-1-1z"/>
</svg>
